!!!!SEGMENT: pl-stab--st-a--001_anonim--sanctissima-mater.krn
!!!cenid: 15xx:356
!!!COM: Anonim
!!!COM-rismid: pe30004985
!!!CDT:
!!!CNT:
!!!OTL: Sanctissima mater
!!!PDT: 1586
!!!AGN: Sacred
!!!SMS-siglum: PL-STAb
!!!SMS-shelfmark: St A
!!!SMS-shelfwork: 001 W
!!!NIFC-rismid:
!!!URL-scan: http://staniatki.studiokropka.pl/mbp/#/item/429
!!!ONB-nifc:
!!!COM: Anonim
!!!CDT: 
!!!OTL@@LAT: Sanctissima sanctissima mater Dei
!!!TXO: Latin
!!!ODT:
!!!GTL: Hymnbook A
!!!ARL: Opactwo św. Wojciecha, Staniątki
!!!voices:	1
**kern	**text	**text	**text	**text	**text	**text	**text	**text	**text	**text
*	*verse 1	*verse 2	*verse 3	*verse 4	*verse 5	*verse 6	*verse 7	*verse 8	*verse 9	*verse 10
*staff1	*	*	*	*	*	*	*	*	*	*
=-	=-	=-	=-	=-	=-	=-	=-	=-	=-	=-
!LO:TX:a:t=P:problem:brak klucza, oznaczenia menzuralnego, znaków przykluczowych i pierwszego dźwięku z sylabą tekstu	!	!	!	!	!	!	!	!	!	!
1ryy	[San]-	[...]	.	.	[...]	[...]	[...]	[...]	.	.
1a	-ctis-	Ma-	[Fun-]	[A]	.	.	.	.	[Z c]zÿ-	[Bą]dź
=	=	=	=	=	=	=	=	=	=	=
1a	-si-	-ri-	-de	-ve	cum	Ma-	Ma-	zba-	-steÿ	.
1a	-ma	-a	pre-	cla-	ve-	-ria	-ria	-wie-	.	po-
=	=	=	=	=	=	=	=	=	=	=
!	!LO:TX:a:t:=S:sic:brak "n" w słowie "sanctissima"	!	!	!	!	!	!	!	!	!
1.cc	sà[n]-	flos	-ces	-ra	-ne-	pan-	kwiat-	.	Pan-	-chwa-
4b\	-ctis-	.	.	.	.	-no	.	-nia	-nÿ	-lon
4a\	-si-	.	.	stel-	.	.	.	.	.	.
=	=	=	=	=	=	=	=	=	=	=
1g	-ma	vir-	ad	-la	-rit	.	-ku	dla	sie	Je-
1cc	ma-	-gi-	fi-	ma-	mor-	czÿ-	.	na-	na-	-zu
=	=	=	=	=	=	=	=	=	=	=
!	!	!LO:TX:a:t:P:problem:pozioma kreska nad "nu"	!	!	!	!	!	!	!	!
1b	-ter	-nu[m]	-li-	-ris	-tis	-sta	ias-	-sze-	-ro-	.
1a	Dei	.	-um	.	di-	.	-nÿ	-go	-dził	mi-
=	=	=	=	=	=	=	=	=	=	=
1g;	.	.	.	.	-es	.	.	.	.	-łÿ
1g	Ave	velut	pro	de	no-	.	z ćie-	nie	abÿ	z czÿs-
=	=	=	=	=	=	=	=	=	=	=
1a	ful-	.	sa-	qua	-bis	tÿs	bie	li-	nam	.
1b	gens.	ro-	-lu-	.	.	.	sie	-to-	.	-teÿ
=	=	=	=	=	=	=	=	=	=	=
1.cc	a.	-sa	-te	pro-	de-	po-	na-	-wał	wie-	.
4b\	f.	.	.	.	-tur	-czę-	-ro-	.	.	Pan-
4a\	.	.	.	-dit	.	.	.	.	.	.
=	=	=	=	=	=	=	=	=	=	=
1g	.	.	.	.	e-	-ła	-dził	nam	-cznÿ	-nÿ
2a\	in	vel	fi-	lux	-ter-	Je-	.	Pan	.	.
2.b\	ar-	.	-de-	.	-na	-su	nam	.	żÿ	na-
=	=	=	=	=	=	=	=	=	=	=
.	.	.	.	.	.	.	.	.	.	.
4a\	-cha	lili-	-li-	sola-	re-	Chri-	.	bó-	-wot	-ro-
1a	.	-um	-um	-ris	-qui-	.	Pan	-stwa	spra-	-dzo-
2g/	Dei.	.	.	.	-es.	-sta.	wie-	swe-	.	-nÿ.
=	=	=	=	=	=	=	=	=	=	=
0a	.	.	.	.	.	.	-kuistÿ	-go.	-wił.	.
==	==	==	==	==	==	==	==	==	==	==
*-	*-	*-	*-	*-	*-	*-	*-	*-	*-	*-
!!!GTL: Hymnbook A
!!!EFL:
!!!YEM: Creative Commons CC/BY/NC/SA 4.0
!!!ENC: Marcin Konik
!!!END: 2015-03-01
!!!ENC: Marta Lawrence
!!!END: 2020-02-01
!!!EED: Marcin Konik
!!!EEV:
!!!ONB: Encoded in vim by Marcin Konik
!!!CharacterEncoding: utf-8
!!!RDF**kern: l=long note in original notation
!!!RDF**kern: i=editorial accidental
!!muse2ps: z14jc180F
!!title: @{OTL}, @{GTL}: @{pag}, ed. @{ENC}
!!!pag: p. 1v
